X: 25
T: Tick Tock Clock (lower teacher part)
C: Edward Huws Jones
M: 4/4
K: D
L: 1/8
Q: 1/4 = 88
 z8 | z4 "(arco)"z2 .!mf!!tenuto!uA2 | .!tenuto!F2 .!tenuto!A2 .!tenuto!d2 (FD) | .!tenuto!A2 .!tenuto!A2 .!tenuto!d2 (FD) | (B2 A2) (B2 A2) |
(c2 A2) (Ad!uppermordent!cA) | .!tenuto!F2 .!tenuto!A2 .!tenuto!d2 (FD) | .!tenuto!F2 !>(!.!tenuto!A2 A z (dA)!>)! | !p!A,2 (A,B,) .A,2 (A,B,) | .A,2 !f!"0"!+!A2 "0"!+!D2 z2 |]

